X:4
T:Mrs. Hamilton of Wishaw\.i
R:reel
C:William Marshall
O:18th century Scotland
D:Highland Classic, Carl MacKenzie, 2007 S:http://www.cranfordpub.com/recordings/carl.htm
B:Skye Collection, Marshall Collection
Z:psc -  http://www.cranfordpub.com
L:1/8
Q:333
M:C|
K:Bb
e|dB B/B/B B2 FB|cded cCCe|dB B/B/B B2 FB|ABcA BB,B,:|
||c|B/B/B fd bdfd|B/B/B fd eccd|B/B/B fd bdfd|ABcA BB,B,c|
B/B/B fd bdfd|B/B/B fd eccf|gefd edcB|AGFE DB,B,||
